X: 1068
T: Tit for Tat
P: Longways for as many as will
R: jig
B: "Caledonian Country Dances" printed by John Walsh for John Johnson, London
S: http://imslp.org/wiki/Caledonian_Country_Dances_with_a_Thorough_Bass_(Various)
Z: 2013 John Chambers <jc:trillian.mit.edu>
N: The 2nd phrase has a begin repeat but no end repeat.
N: Repeats added to satisfy the "Each Strain twice" instruction.
N: The D.C. at the end seems superfluous; the dance seems to be 32 bars long.
N: Perhaps the tune was meant to be played AABA?  Or maybe the dance should end in the middle?
M: 6/8
L: 1/8
K: C
% - - - - - - - - - - - - - - - - - - - - - - - - -
V: 1
c2c |\
G2G ABA | G3 c2c | d2e f2e | d2c c2c |\
G2G ABA | G3 c2c | ded e2d | Hc3 :|
|: efg |\
g3 efg | g3 efg | a2g f2e | d2c efg |\
g3 efg | g3 efg | a2g f2e | d3 :|
% - - - - - - - - - - - - - - - - - - - - - - - - -
V: 2 clef=bass middle=d
c3 |\
e3 f3 | e2c zzc | g2e d2c | g2c zzc |\
e3 f3 | e2c e3 | f3 g3 | c3 :|
|:\
zzc' |\
b2g zzc' | b2g zze | f2e d2c | g2c zzc' |\
b2g zzc' | b2g c2e | f2e d2c | g3 "^D.C.":|
% - - - - - - - - - - - - - - - - - - - - - - - - -
%%center Each Strain twice.
%%begintext align
The first Man sett to the 2d Wo. & clap Hands & turn, then foot it & knee it
the 1st Man cast off below the 2d Cu. .|
The 1st Wo. & 2d Man do the same, then first Wo. cast off below the 2d Wo :|
the 1st Cu. go Hands across quite round with the 3d Cu.
then lead up round the 2d Cu. into the 2d Cu. Place .|
Then Right and Left with the 2d Cu. & turn Partners :|
%%endtext
